public/images/door_panels/panel_22.svg

<?xml version="1.0" encoding="UTF-8" standalone="no"?>
<!-- Created with Inkscape (http://www.inkscape.org/) -->

<svg
   xmlns:dc="http://purl.org/dc/elements/1.1/"
   xmlns:cc="http://creativecommons.org/ns#"
   xmlns:rdf="http://www.w3.org/1999/02/22-rdf-syntax-ns#"
   xmlns:svg="http://www.w3.org/2000/svg"
   xmlns="http://www.w3.org/2000/svg"
   xmlns:sodipodi="http://sodipodi.sourceforge.net/DTD/sodipodi-0.dtd"
   xmlns:inkscape="http://www.inkscape.org/namespaces/inkscape"
   width="80"
   height="190"
   id="svg2"
   version="1.1"
   inkscape:version="0.48.1 r9760"
   inkscape:export-filename="/home/josyan/Documents/panel_22.png"
   inkscape:export-xdpi="90"
   inkscape:export-ydpi="90"
   sodipodi:docname="panel_22.svg"
   style="display:inline">
  <defs
     id="defs4" />
  <sodipodi:namedview
     id="base"
     pagecolor="#ffffff"
     bordercolor="#666666"
     borderopacity="1.0"
     inkscape:pageopacity="0.0"
     inkscape:pageshadow="2"
     inkscape:zoom="4.0157895"
     inkscape:cx="40"
     inkscape:cy="95"
     inkscape:document-units="px"
     inkscape:current-layer="layer3"
     showgrid="true"
     objecttolerance="10000"
     inkscape:snap-global="true"
     inkscape:snap-page="true"
     inkscape:window-width="1680"
     inkscape:window-height="879"
     inkscape:window-x="0"
     inkscape:window-y="24"
     inkscape:window-maximized="1">
    <inkscape:grid
       type="xygrid"
       id="grid2985"
       empspacing="1"
       visible="true"
       enabled="true"
       snapvisiblegridlinesonly="false"
       originx="0.5px"
       originy="0.5px"
       dotted="true" />
  </sodipodi:namedview>
  <metadata
     id="metadata7">
    <rdf:RDF>
      <cc:Work
         rdf:about="">
        <dc:format>image/svg+xml</dc:format>
        <dc:type
           rdf:resource="http://purl.org/dc/dcmitype/StillImage" />
        <dc:title />
      </cc:Work>
    </rdf:RDF>
  </metadata>
  <g
     inkscape:label="Border"
     inkscape:groupmode="layer"
     id="layer1"
     transform="translate(0,-862.36218)"
     sodipodi:insensitive="true">
    <rect
       style="fill:#ffffff;fill-opacity:1;fill-rule:evenodd;stroke:#000000;stroke-width:0.99999988;stroke-linecap:butt;stroke-linejoin:miter;stroke-miterlimit:4;stroke-opacity:1;stroke-dasharray:none"
       id="rect2987"
       width="79"
       height="189.00005"
       x="0.50000006"
       y="862.86218" />
  </g>
  <g
     inkscape:groupmode="layer"
     id="layer3"
     inkscape:label="Design">
    <rect
       style="fill:#ffffff;fill-opacity:1;stroke:#808080;stroke-width:1;stroke-linecap:square;stroke-linejoin:miter;stroke-miterlimit:4;stroke-opacity:1;stroke-dasharray:none"
       id="rect3816"
       width="9"
       height="14"
       x="14.5"
       y="155.5" />
    <rect
       style="fill:#ffffff;fill-opacity:1;stroke:#808080;stroke-width:1;stroke-linecap:square;stroke-linejoin:miter;stroke-miterlimit:4;stroke-opacity:1;stroke-dasharray:none"
       id="rect3816-3"
       width="5"
       height="10"
       x="16.5"
       y="157.5" />
    <rect
       style="fill:#ffffff;fill-opacity:1;stroke:#808080;stroke-width:1;stroke-linecap:square;stroke-linejoin:miter;stroke-miterlimit:4;stroke-opacity:1;stroke-dasharray:none"
       id="rect3816-33"
       width="9"
       height="14"
       x="56.5"
       y="155.5" />
    <rect
       style="fill:#ffffff;fill-opacity:1;stroke:#808080;stroke-width:1;stroke-linecap:square;stroke-linejoin:miter;stroke-miterlimit:4;stroke-opacity:1;stroke-dasharray:none"
       id="rect3816-3-7"
       width="5"
       height="10"
       x="58.5"
       y="157.5" />
    <rect
       style="fill:#ffffff;fill-opacity:1;stroke:#808080;stroke-width:1;stroke-linecap:square;stroke-linejoin:miter;stroke-miterlimit:4;stroke-opacity:1;stroke-dasharray:none"
       id="rect3816-2"
       width="9"
       height="94.000023"
       x="14.5"
       y="54.5" />
    <rect
       style="fill:#ffffff;fill-opacity:1;stroke:#808080;stroke-width:1;stroke-linecap:square;stroke-linejoin:miter;stroke-miterlimit:4;stroke-opacity:1;stroke-dasharray:none"
       id="rect3816-3-1"
       width="5"
       height="90.000008"
       x="16.5"
       y="56.500004" />
    <rect
       style="fill:#ffffff;fill-opacity:1;stroke:#808080;stroke-width:1;stroke-linecap:square;stroke-linejoin:miter;stroke-miterlimit:4;stroke-opacity:1;stroke-dasharray:none"
       id="rect3816-2-0"
       width="9"
       height="94.000023"
       x="56.5"
       y="54.5" />
    <rect
       style="fill:#ffffff;fill-opacity:1;stroke:#808080;stroke-width:1;stroke-linecap:square;stroke-linejoin:miter;stroke-miterlimit:4;stroke-opacity:1;stroke-dasharray:none"
       id="rect3816-3-1-9"
       width="5"
       height="90.000008"
       x="58.5"
       y="56.5" />
    <rect
       style="fill:#ffffff;fill-opacity:1;stroke:#808080;stroke-width:0.99999994;stroke-linecap:square;stroke-linejoin:miter;stroke-miterlimit:4;stroke-opacity:1;stroke-dasharray:none"
       id="rect3816-4"
       width="19"
       height="28"
       x="30.5"
       y="141.5" />
    <rect
       style="fill:#ffffff;fill-opacity:1;stroke:#808080;stroke-width:1;stroke-linecap:square;stroke-linejoin:miter;stroke-miterlimit:4;stroke-opacity:1;stroke-dasharray:none"
       id="rect3816-3-0"
       width="15"
       height="24"
       x="32.5"
       y="143.5" />
    <path
       style="fill:#ffffff;fill-opacity:1;stroke:#808080;stroke-width:0.99999988;stroke-linecap:square;stroke-linejoin:miter;stroke-miterlimit:4;stroke-opacity:1;stroke-dasharray:none"
       d="m 40,34.5 c -5.246705,0 -9.5,4.477153 -9.5,10 l 0,90 19,0 0,-90 c 0,-5.522847 -4.253295,-10 -9.5,-10 z"
       id="rect3816-4-9"
       inkscape:connector-curvature="0" />
    <path
       style="fill:#ffffff;fill-opacity:1;stroke:#808080;stroke-width:1;stroke-linecap:square;stroke-linejoin:miter;stroke-miterlimit:4;stroke-opacity:1;stroke-dasharray:none"
       d="m 40,36.5 c -4.142136,0 -7.5,3.581722 -7.5,8 l 0,88 15,0 0,-88 c 0,-4.418278 -3.357864,-8 -7.5,-8 z"
       id="rect3816-3-0-7"
       inkscape:connector-curvature="0" />
    <path
       style="fill:#ffffff;fill-opacity:1;stroke:#808080;stroke-width:1;stroke-linecap:square;stroke-linejoin:miter;stroke-miterlimit:4;stroke-opacity:1;stroke-dasharray:none"
       d="m 14.5,15.5 0,32 9,0 c 0,-9.58331 5.576252,-17.578529 13,-19.53125 l 0,-12.46875 -22,0 z"
       id="rect3967"
       inkscape:connector-curvature="0" />
    <path
       style="fill:#ffffff;fill-opacity:1;stroke:#808080;stroke-width:0.99999994;stroke-linecap:square;stroke-linejoin:miter;stroke-miterlimit:4;stroke-opacity:1;stroke-dasharray:none"
       d="m 16.5,17.5 0,28 5.09375,0 C 22.275671,36.51424 27.484268,29.094953 34.5,26.5 l 0,-9 -18,0 z"
       id="rect3967-3"
       inkscape:connector-curvature="0" />
    <path
       style="fill:#ffffff;fill-opacity:1;stroke:#808080;stroke-width:1;stroke-linecap:square;stroke-linejoin:miter;stroke-miterlimit:4;stroke-opacity:1;stroke-dasharray:none"
       d="m 43.5,15.5 0,12.46875 c 7.423748,1.952721 13,9.94794 13,19.53125 l 9,0 0,-32 -22,0 z"
       id="rect3967-1"
       inkscape:connector-curvature="0" />
    <path
       style="fill:#ffffff;fill-opacity:1;stroke:#808080;stroke-width:0.99999994;stroke-linecap:square;stroke-linejoin:miter;stroke-miterlimit:4;stroke-opacity:1;stroke-dasharray:none"
       d="m 45.5,17.5 0,9 c 7.015732,2.594953 12.224329,10.01424 12.90625,19 l 5.09375,0 0,-28 -18,0 z"
       id="rect3967-3-6"
       inkscape:connector-curvature="0" />
  </g>
</svg>

<?xml version="1.0" encoding="UTF-8" standalone="no"?>
<!-- Created with Inkscape (http://www.inkscape.org/) -->

<svg
   xmlns:dc="http://purl.org/dc/elements/1.1/"
   xmlns:cc="http://creativecommons.org/ns#"
   xmlns:rdf="http://www.w3.org/1999/02/22-rdf-syntax-ns#"
   xmlns:svg="http://www.w3.org/2000/svg"
   xmlns="http://www.w3.org/2000/svg"
   xmlns:xlink="http://www.w3.org/1999/xlink"
   xmlns:sodipodi="http://sodipodi.sourceforge.net/DTD/sodipodi-0.dtd"
   xmlns:inkscape="http://www.inkscape.org/namespaces/inkscape"
   width="80"
   height="190"
   id="svg2"
   version="1.1"
   inkscape:version="0.48.1 r9760"
   inkscape:export-filename="/home/josyan/Documents/panel_22.png"
   inkscape:export-xdpi="90"
   inkscape:export-ydpi="90"
   sodipodi:docname="panel_22.svg">
  <defs
     id="defs4" />
  <sodipodi:namedview
     id="base"
     pagecolor="#ffffff"
     bordercolor="#666666"
     borderopacity="1.0"
     inkscape:pageopacity="0.0"
     inkscape:pageshadow="2"
     inkscape:zoom="4.0157895"
     inkscape:cx="40"
     inkscape:cy="95"
     inkscape:document-units="px"
     inkscape:current-layer="layer2"
     showgrid="true"
     objecttolerance="10000"
     inkscape:snap-global="true"
     inkscape:snap-page="true"
     inkscape:window-width="1680"
     inkscape:window-height="973"
     inkscape:window-x="0"
     inkscape:window-y="24"
     inkscape:window-maximized="1">
    <inkscape:grid
       type="xygrid"
       id="grid2985"
       empspacing="1"
       visible="true"
       enabled="true"
       snapvisiblegridlinesonly="false"
       originx="0.5px"
       originy="0.5px"
       dotted="true" />
  </sodipodi:namedview>
  <metadata
     id="metadata7">
    <rdf:RDF>
      <cc:Work
         rdf:about="">
        <dc:format>image/svg+xml</dc:format>
        <dc:type
           rdf:resource="http://purl.org/dc/dcmitype/StillImage" />
        <dc:title></dc:title>
      </cc:Work>
    </rdf:RDF>
  </metadata>
  <g
     inkscape:label="Border"
     inkscape:groupmode="layer"
     id="layer1"
     transform="translate(0,-862.36218)"
     sodipodi:insensitive="true">
    <rect
       style="fill:#ffffff;fill-opacity:1;fill-rule:evenodd;stroke:#000000;stroke-width:0.99999988;stroke-linecap:butt;stroke-linejoin:miter;stroke-miterlimit:4;stroke-opacity:1;stroke-dasharray:none"
       id="rect2987"
       width="79"
       height="189.00005"
       x="0.50000006"
       y="862.86218" />
  </g>
  <g
     inkscape:groupmode="layer"
     id="layer2"
     inkscape:label="Template"
     sodipodi:insensitive="true"
     style="display:none">
    <image
       y="0.5"
       x="0.5"
       id="image3044"
       xlink:href="file:///home/josyan/Documents/panel_22.jpg"
       height="189"
       width="79" />
  </g>
  <g
     inkscape:groupmode="layer"
     id="layer3"
     inkscape:label="Design">
    <rect
       style="fill:#ffffff;stroke:#808080;stroke-width:1;stroke-linecap:square;stroke-linejoin:miter;stroke-miterlimit:4;stroke-opacity:1;stroke-dasharray:none;fill-opacity:1"
       id="rect3816"
       width="9"
       height="14"
       x="14.5"
       y="155.5" />
    <rect
       style="fill:#ffffff;fill-opacity:1;stroke:#808080;stroke-width:1;stroke-linecap:square;stroke-linejoin:miter;stroke-miterlimit:4;stroke-opacity:1;stroke-dasharray:none"
       id="rect3816-3"
       width="5"
       height="10"
       x="16.5"
       y="157.5" />
    <rect
       style="fill:#ffffff;fill-opacity:1;stroke:#808080;stroke-width:1;stroke-linecap:square;stroke-linejoin:miter;stroke-miterlimit:4;stroke-opacity:1;stroke-dasharray:none"
       id="rect3816-33"
       width="9"
       height="14"
       x="56.5"
       y="155.5" />
    <rect
       style="fill:#ffffff;fill-opacity:1;stroke:#808080;stroke-width:1;stroke-linecap:square;stroke-linejoin:miter;stroke-miterlimit:4;stroke-opacity:1;stroke-dasharray:none"
       id="rect3816-3-7"
       width="5"
       height="10"
       x="58.5"
       y="157.5" />
    <rect
       style="fill:#ffffff;fill-opacity:1;stroke:#808080;stroke-width:1;stroke-linecap:square;stroke-linejoin:miter;stroke-miterlimit:4;stroke-opacity:1;stroke-dasharray:none"
       id="rect3816-2"
       width="9"
       height="94.000023"
       x="14.5"
       y="54.5" />
    <rect
       style="fill:#ffffff;fill-opacity:1;stroke:#808080;stroke-width:1;stroke-linecap:square;stroke-linejoin:miter;stroke-miterlimit:4;stroke-opacity:1;stroke-dasharray:none"
       id="rect3816-3-1"
       width="5"
       height="90.000008"
       x="16.5"
       y="56.500004" />
    <rect
       style="fill:#ffffff;fill-opacity:1;stroke:#808080;stroke-width:1;stroke-linecap:square;stroke-linejoin:miter;stroke-miterlimit:4;stroke-opacity:1;stroke-dasharray:none"
       id="rect3816-2-0"
       width="9"
       height="94.000023"
       x="56.5"
       y="54.5" />
    <rect
       style="fill:#ffffff;fill-opacity:1;stroke:#808080;stroke-width:1;stroke-linecap:square;stroke-linejoin:miter;stroke-miterlimit:4;stroke-opacity:1;stroke-dasharray:none"
       id="rect3816-3-1-9"
       width="5"
       height="90.000008"
       x="58.5"
       y="56.5" />
    <rect
       style="fill:#ffffff;fill-opacity:1;stroke:#808080;stroke-width:0.99999994;stroke-linecap:square;stroke-linejoin:miter;stroke-miterlimit:4;stroke-opacity:1;stroke-dasharray:none"
       id="rect3816-4"
       width="19"
       height="28"
       x="30.5"
       y="141.5" />
    <rect
       style="fill:#ffffff;fill-opacity:1;stroke:#808080;stroke-width:1;stroke-linecap:square;stroke-linejoin:miter;stroke-miterlimit:4;stroke-opacity:1;stroke-dasharray:none"
       id="rect3816-3-0"
       width="15"
       height="24"
       x="32.5"
       y="143.5" />
    <path
       style="fill:#ffffff;fill-opacity:1;stroke:#808080;stroke-width:0.99999988;stroke-linecap:square;stroke-linejoin:miter;stroke-miterlimit:4;stroke-opacity:1;stroke-dasharray:none"
       d="M 40 34.5 C 34.753295 34.5 30.5 38.977153 30.5 44.5 L 30.5 134.5 L 49.5 134.5 L 49.5 44.5 C 49.5 38.977153 45.246705 34.5 40 34.5 z "
       id="rect3816-4-9" />
    <path
       style="fill:#ffffff;fill-opacity:1;stroke:#808080;stroke-width:1;stroke-linecap:square;stroke-linejoin:miter;stroke-miterlimit:4;stroke-opacity:1;stroke-dasharray:none"
       d="M 40 36.5 C 35.857864 36.5 32.5 40.081722 32.5 44.5 L 32.5 132.5 L 47.5 132.5 L 47.5 44.5 C 47.5 40.081722 44.142136 36.5 40 36.5 z "
       id="rect3816-3-0-7" />
    <path
       style="fill:#ffffff;fill-opacity:1;stroke:#808080;stroke-width:1;stroke-linecap:square;stroke-linejoin:miter;stroke-miterlimit:4;stroke-opacity:1;stroke-dasharray:none"
       d="M 14.5 15.5 L 14.5 47.5 L 23.5 47.5 C 23.5 37.91669 29.076252 29.921471 36.5 27.96875 L 36.5 15.5 L 14.5 15.5 z "
       id="rect3967" />
    <path
       style="fill:#ffffff;fill-opacity:1;stroke:#808080;stroke-width:0.99999994000000003;stroke-linecap:square;stroke-linejoin:miter;stroke-miterlimit:4;stroke-opacity:1;stroke-dasharray:none"
       d="M 16.5 17.5 L 16.5 45.5 L 21.59375 45.5 C 22.275671 36.51424 27.484268 29.094953 34.5 26.5 L 34.5 17.5 L 16.5 17.5 z "
       id="rect3967-3" />
    <path
       style="fill:#ffffff;fill-opacity:1;stroke:#808080;stroke-width:1;stroke-linecap:square;stroke-linejoin:miter;stroke-miterlimit:4;stroke-opacity:1;stroke-dasharray:none"
       d="M 43.5 15.5 L 43.5 27.96875 C 50.923748 29.921471 56.5 37.91669 56.5 47.5 L 65.5 47.5 L 65.5 15.5 L 43.5 15.5 z "
       id="rect3967-1" />
    <path
       style="fill:#ffffff;fill-opacity:1;stroke:#808080;stroke-width:0.99999994000000003;stroke-linecap:square;stroke-linejoin:miter;stroke-miterlimit:4;stroke-opacity:1;stroke-dasharray:none"
       d="M 45.5 17.5 L 45.5 26.5 C 52.515732 29.094953 57.724329 36.51424 58.40625 45.5 L 63.5 45.5 L 63.5 17.5 L 45.5 17.5 z "
       id="rect3967-3-6" />
  </g>
</svg>
